X:1
T:Showers of Blessing
T:John Robson Sweney
T:Showers of Blessing
T:Public Domain
T:Public Domain
C:John Robson Sweney
Z:Public Domain
%%score ( 1 2 ) ( 3 4 )
L:1/8
M:6/8
K:Ab
V:1 treble 
V:2 treble 
V:3 bass 
V:4 bass 
V:1
 [CA][CA][CA] [CA][DG][CA] | [EB]3 E3 | [EB][EB][EB] [EB][EA][EB] | [Ec]3- [Ec]2 z | %4
w: 1.~Here in Thy Name we are|ga- thered,|and re- vive us, O Lord;|“There *|
w: 2.~Oh! that the show- ers of|bless- ing,|on our souls may de- scend,|While *|
w: 3.~“There shall be show- ers of|bless- ing,”|ise that nev- er can fail;|Thou *|
w: 4.~Show- ers of bless- ing, we|need them,|ers of bless- ing from Thee;|Show- *|
 [Ec][Ec][Ec] [Ec][Ed][Ee] | [Ee]3 [EA]3 | [EG][EG][EG] [=DB][DA][DF] | (E2 C [DE]3) || %8
w: shall be show- ers of bless-|ing,” Thou|hast de- clared in Thy Word.||
w: at the foot- stool of mer-|cy Plead-|ing Thy prom- ise we bend!|Oh, * *|
w: wilt re- gard our pe- ti-|tion; Sure-|ly our faith will pre- vail.||
w: ers of bless- ing, oh, grant|them, Thine|all the glor- y shall be.||
"^Refrain" [Ec]3 [EA][EG][EA] | [Ec]3 [EB]3 | [Ed][Ed][Ed] [FB][Fc][Ed] | [Ec]3- [Ec]2 z | %12
w: ||||
w: cious- ly hear us,|Gra- cious-|ly hear us, we pray: Pour|from *|
w: ||||
w: ||||
 [Ee][Ee][Ee] [Ee][Ec][EA] | [DB]3 [Fd]3 | [DG][DG][DG] [Ed][Ec][EB] | [CA]6 |] %16
w: ||||
w: Thy win- dows up- on us|Show- ers|of bless- ing to- day. *||
w: ||||
w: ||||
V:2
 x6 | x3 E3 | x6 | x6 | x6 | x6 | x6 | E3 x3 || x6 | x6 | x6 | x6 | x6 | x6 | x6 | x6 |] %16
w: |Come|||||||||||||||
w: |Now||||||gra-|||||||||
w: |Prom-|||||||||||||||
w: |Show-|||||||||||||||
V:3
 [A,,E,][A,,E,][A,,E,] [A,,E,][A,,E,][A,,A,] | [E,G,]3 [E,G,]3 | [E,D][E,D][E,D] [E,D][E,C][E,G,] | %3
w: ~ ~ ~ ~ ~ ~|~ ~|~ ~ ~ ~ ~ ~|
 [A,,A,]3- [A,,A,]2 z | A,A,A, A,[A,B,][A,C] | [A,C]3 [A,C]3 | B,B,B, [B,,B,][B,,F,][B,,A,] | %7
w: ~ *|~ ~ ~ ~ ~ ~|~ ~|~ ~ ~ ~ ~ ~|
 (G,2 A, [E,B,]3) || [A,,A,]3 [A,,C][A,,B,][A,,C] | [E,A,][E,A,][E,A,] [E,G,]2 [E,G,] | %10
w: ly * *|us, ~ ~ ~|* ~ ~ ~ ~|
 [E,B,][E,B,][E,B,] [E,G,][E,A,][E,B,] | [A,,A,]3- [A,,A,]2 z | [A,C][A,C][A,C] [A,C]A,[C,A,] | %13
w: ~ ~ ~ ~ ~ Lord,|pour *|up- on us * * *|
 [D,F,][D,F,][D,F,] [B,,A,]3 | [E,B,][E,B,][E,B,] [E,B,][E,A,][E,G,] | [A,,A,]6 |] %16
w: |||
V:4
 x6 | x6 | x6 | x6 | A,A,A, A, x2 | x6 | B,B,B, x3 | E,3- x3 || x6 | x6 | x6 | x6 | x4 A, x | x6 | %14
w: ||||~ ~ ~ ~||~ gra- cious-|hear|||||||
 x6 | x6 |] %16
w: ||

